X: 25
T: Lark In The Morning, The
Z: Sean Perry
S: https://thesession.org/tunes/62#setting50899
R: jig
M: 6/8
L: 1/8
K: Dmaj
|:AFA AFA|BGB BdB|AFA Ade|fdB ~B3|
AFA AFA|BGB BdB|def afe|fdB BdB:|
|:def aa/a/a|baf afe|def afe|fdB B2A|
def aa/a/a|baf a2f|gg/g/g ff/f/f|edB B2A:|
|:dzf fef|fef fef|dzf fef|edB BAB|
dzf fef|fef fef|gg/g/g ff/f/f|edB BAB:|
|:Add fdd|ede fdB|Add fdd|ede edB|
Add fdd|ede ~f3|gg/g/g ff/f/f|edB ~B3:|

